symbols/web/electric_car/materialsymbolssharp/electric_car_wght700gradN25fill1_20px.svg

<svg xmlns="http://www.w3.org/2000/svg" height="20" width="20"><path d="M1.979 14.792v-7.98L4.146.417h11.708l2.167 6.395v7.98h-3.25v-1.604H5.229v1.604Zm3.313-9.5h9.416l-.729-2.271H6.021Zm1.104 4.687q.5 0 .854-.354t.354-.854q0-.5-.354-.854-.354-.355-.854-.355t-.854.355q-.354.354-.354.854t.354.854q.354.354.854.354Zm7.208 0q.5 0 .854-.354t.354-.854q0-.5-.354-.854-.354-.355-.854-.355t-.854.355q-.354.354-.354.854t.354.854q.354.354.854.354Zm-2.687 9.271-5.355-2.667h3.563v-1.791l5.313 2.687h-3.521Z"/></svg>

<svg xmlns="http://www.w3.org/2000/svg" height="20" width="20"><path d="M1.979 14.792V6.812L4.146 0.417H15.854L18.021 6.812V14.792H14.771V13.188H5.229V14.792ZM5.292 5.292H14.708L13.979 3.021H6.021ZM6.396 9.979Q6.896 9.979 7.25 9.625Q7.604 9.271 7.604 8.771Q7.604 8.271 7.25 7.917Q6.896 7.562 6.396 7.562Q5.896 7.562 5.542 7.917Q5.188 8.271 5.188 8.771Q5.188 9.271 5.542 9.625Q5.896 9.979 6.396 9.979ZM13.604 9.979Q14.104 9.979 14.458 9.625Q14.812 9.271 14.812 8.771Q14.812 8.271 14.458 7.917Q14.104 7.562 13.604 7.562Q13.104 7.562 12.75 7.917Q12.396 8.271 12.396 8.771Q12.396 9.271 12.75 9.625Q13.104 9.979 13.604 9.979ZM10.917 19.25 5.562 16.583H9.125V14.792L14.438 17.479H10.917Z"/></svg>
